X:459
T:B459-  Tender Hearts of London City
Q:1/4=120
L:1/4
M:3/4
K:Gm
d2B|cde|d2B|B2A|\
(cB)A|(GA)B|(cA)B|^F2A|\
(Bc)d|(ec)f|(dB)c|d3|\
^F2A|GB2|A2c|Bd2|\
e2c|B2A|B^F2|G3|]
